src/icons/tree.svg

<?xml version="1.0" encoding="UTF-8"?>
<svg xmlns="http://www.w3.org/2000/svg" xmlns:xlink="http://www.w3.org/1999/xlink" width="32" height="32" viewBox="0 0 32 32" version="1.1">
<g id="surface1">
<path style=" stroke:none;fill-rule:nonzero;fill:rgb(0%,0%,0%);fill-opacity:1;" d="M 3.199219 1.921875 C 2.148438 1.921875 1.28125 2.789062 1.28125 3.839844 L 1.28125 11.519531 C 1.28125 12.574219 2.148438 13.441406 3.199219 13.441406 L 10.878906 13.441406 C 11.933594 13.441406 12.800781 12.574219 12.800781 11.519531 L 12.800781 3.839844 C 12.800781 2.789062 11.933594 1.921875 10.878906 1.921875 Z M 3.199219 3.199219 L 10.878906 3.199219 C 11.242188 3.199219 11.519531 3.476562 11.519531 3.839844 L 11.519531 11.519531 C 11.519531 11.882812 11.242188 12.160156 10.878906 12.160156 L 3.199219 12.160156 C 2.839844 12.160156 2.558594 11.882812 2.558594 11.519531 L 2.558594 3.839844 C 2.558594 3.476562 2.839844 3.199219 3.199219 3.199219 Z M 7.039062 14.71875 C 6.6875 14.71875 6.398438 15.007812 6.398438 15.359375 C 6.398438 15.714844 6.6875 16 7.039062 16 C 7.394531 16 7.679688 15.714844 7.679688 15.359375 C 7.679688 15.007812 7.394531 14.71875 7.039062 14.71875 Z M 7.039062 17.28125 C 6.6875 17.28125 6.398438 17.566406 6.398438 17.921875 C 6.398438 18.273438 6.6875 18.558594 7.039062 18.558594 C 7.394531 18.558594 7.679688 18.273438 7.679688 17.921875 C 7.679688 17.566406 7.394531 17.28125 7.039062 17.28125 Z M 21.121094 18.558594 C 20.066406 18.558594 19.199219 19.425781 19.199219 20.480469 L 19.199219 28.160156 C 19.199219 29.210938 20.066406 30.078125 21.121094 30.078125 L 28.800781 30.078125 C 29.851562 30.078125 30.71875 29.210938 30.71875 28.160156 L 30.71875 20.480469 C 30.71875 19.425781 29.851562 18.558594 28.800781 18.558594 Z M 7.039062 19.839844 C 6.6875 19.839844 6.398438 20.125 6.398438 20.480469 C 6.398438 20.832031 6.6875 21.121094 7.039062 21.121094 C 7.394531 21.121094 7.679688 20.832031 7.679688 20.480469 C 7.679688 20.125 7.394531 19.839844 7.039062 19.839844 Z M 21.121094 19.839844 L 28.800781 19.839844 C 29.160156 19.839844 29.441406 20.117188 29.441406 20.480469 L 29.441406 28.160156 C 29.441406 28.523438 29.160156 28.800781 28.800781 28.800781 L 21.121094 28.800781 C 20.757812 28.800781 20.480469 28.523438 20.480469 28.160156 L 20.480469 20.480469 C 20.480469 20.117188 20.757812 19.839844 21.121094 19.839844 Z M 7.039062 22.398438 C 6.6875 22.398438 6.398438 22.6875 6.398438 23.039062 C 6.398438 23.394531 6.6875 23.679688 7.039062 23.679688 C 7.394531 23.679688 7.679688 23.394531 7.679688 23.039062 C 7.679688 22.6875 7.394531 22.398438 7.039062 22.398438 Z M 7.039062 24.960938 C 6.6875 24.960938 6.398438 25.246094 6.398438 25.601562 C 6.398438 25.953125 6.6875 26.238281 7.039062 26.238281 C 7.394531 26.238281 7.679688 25.953125 7.679688 25.601562 C 7.679688 25.246094 7.394531 24.960938 7.039062 24.960938 Z M 9.601562 24.960938 C 9.246094 24.960938 8.960938 25.246094 8.960938 25.601562 C 8.960938 25.953125 9.246094 26.238281 9.601562 26.238281 C 9.953125 26.238281 10.238281 25.953125 10.238281 25.601562 C 10.238281 25.246094 9.953125 24.960938 9.601562 24.960938 Z M 12.160156 24.960938 C 11.804688 24.960938 11.519531 25.246094 11.519531 25.601562 C 11.519531 25.953125 11.804688 26.238281 12.160156 26.238281 C 12.511719 26.238281 12.800781 25.953125 12.800781 25.601562 C 12.800781 25.246094 12.511719 24.960938 12.160156 24.960938 Z M 14.71875 24.960938 C 14.367188 24.960938 14.078125 25.246094 14.078125 25.601562 C 14.078125 25.953125 14.367188 26.238281 14.71875 26.238281 C 15.074219 26.238281 15.359375 25.953125 15.359375 25.601562 C 15.359375 25.246094 15.074219 24.960938 14.71875 24.960938 Z M 17.28125 24.960938 C 16.925781 24.960938 16.640625 25.246094 16.640625 25.601562 C 16.640625 25.953125 16.925781 26.238281 17.28125 26.238281 C 17.632812 26.238281 17.921875 25.953125 17.921875 25.601562 C 17.921875 25.246094 17.632812 24.960938 17.28125 24.960938 Z M 17.28125 24.960938 "/>
</g>
</svg>

<svg role="img" viewBox="0 0 32 32" xmlns="http://www.w3.org/2000/svg"><path d="M3.2 1.922A1.929 1.929 0 0 0 1.281 3.84v7.68A1.93 1.93 0 0 0 3.2 13.44h7.68a1.93 1.93 0 0 0 1.92-1.92V3.84a1.93 1.93 0 0 0-1.922-1.918Zm0 1.277h7.679c.363 0 .64.278.64.64v7.68a.628.628 0 0 1-.64.641h-7.68a.631.631 0 0 1-.64-.64V3.84c0-.363.28-.64.64-.64m3.84 11.52a.641.641 0 1 0 .64.64.641.641 0 0 0-.64-.64m0 2.562a.641.641 0 0 0-.642.64.64.64 0 0 0 1.282 0 .639.639 0 0 0-.64-.64M21.12 18.56a1.93 1.93 0 0 0-1.92 1.92v7.68a1.93 1.93 0 0 0 1.922 1.918h7.68a1.93 1.93 0 0 0 1.918-1.918v-7.68a1.93 1.93 0 0 0-1.92-1.92ZM7.04 19.839a.641.641 0 1 0 0 1.283.641.641 0 0 0 0-1.282m14.082 0h7.68c.36 0 .64.278.64.641v7.68a.63.63 0 0 1-.64.64h-7.68a.629.629 0 0 1-.64-.64v-7.68c0-.363.277-.64.64-.64M7.04 22.4a.641.641 0 1 0 0 1.28.641.641 0 0 0 0-1.28m0 2.562a.641.641 0 0 0-.64.64.64.64 0 0 0 1.28 0 .639.639 0 0 0-.64-.64m2.563 0a.639.639 0 1 0-.005 1.277.639.639 0 0 0 .005-1.277m2.558 0a.639.639 0 1 0 0 1.277.64.64 0 0 0 .64-.636.64.64 0 0 0-.64-.641m2.559 0a.641.641 0 0 0-.64.64.64.64 0 0 0 1.28 0 .639.639 0 0 0-.64-.64m2.562 0a.639.639 0 1 0 0 1.277.64.64 0 0 0 .64-.636.64.64 0 0 0-.64-.641m0 0" style="stroke:none;fill-rule:nonzero;fill:rgb(0%,0%,0%);fill-opacity:1"/></svg>
